public/images/logo/google.svg

<svg width="59" height="18" viewBox="0 0 59 18" fill="none" xmlns="http://www.w3.org/2000/svg">
<g clip-path="url(#clip0)">
<path d="M25.2488 9.61006C25.2488 12.2373 23.0629 14.1733 20.3802 14.1733C17.6976 14.1733 15.5117 12.2373 15.5117 9.61006C15.5117 6.96432 17.6976 5.04688 20.3802 5.04688C23.0629 5.04688 25.2488 6.96432 25.2488 9.61006ZM23.1176 9.61006C23.1176 7.9683 21.8507 6.84499 20.3802 6.84499C18.9098 6.84499 17.6429 7.9683 17.6429 9.61006C17.6429 11.2354 18.9098 12.3751 20.3802 12.3751C21.8507 12.3751 23.1176 11.2333 23.1176 9.61006Z" fill="#EA4335"/>
<path d="M35.7507 9.61006C35.7507 12.2373 33.5648 14.1733 30.8822 14.1733C28.1996 14.1733 26.0137 12.2373 26.0137 9.61006C26.0137 6.96638 28.1996 5.04688 30.8822 5.04688C33.5648 5.04688 35.7507 6.96432 35.7507 9.61006ZM33.6195 9.61006C33.6195 7.9683 32.3526 6.84499 30.8822 6.84499C29.4118 6.84499 28.1449 7.9683 28.1449 9.61006C28.1449 11.2354 29.4118 12.3751 30.8822 12.3751C32.3526 12.3751 33.6195 11.2333 33.6195 9.61006Z" fill="#FBBC05"/>
<path d="M45.8165 5.32256V13.5149C45.8165 16.8848 43.7028 18.2612 41.204 18.2612C38.8518 18.2612 37.4361 16.782 36.9022 15.5722L38.7577 14.846C39.0881 15.5887 39.8977 16.4651 41.2018 16.4651C42.8013 16.4651 43.7925 15.5373 43.7925 13.7906V13.1343H43.7181C43.2411 13.6877 42.3221 14.1712 41.1624 14.1712C38.7358 14.1712 36.5127 12.1838 36.5127 9.62652C36.5127 7.05073 38.7358 5.04688 41.1624 5.04688C42.3199 5.04688 43.2389 5.53035 43.7181 6.06732H43.7925V5.32462H45.8165V5.32256ZM43.9435 9.62652C43.9435 8.01974 42.8035 6.84499 41.3528 6.84499C39.8824 6.84499 38.6505 8.01974 38.6505 9.62652C38.6505 11.2168 39.8824 12.3751 41.3528 12.3751C42.8035 12.3751 43.9435 11.2168 43.9435 9.62652Z" fill="#4285F4"/>
<path d="M49.1529 0.519531V13.8923H47.0742V0.519531H49.1529Z" fill="#34A853"/>
<path d="M57.2542 11.1101L58.9084 12.147C58.3745 12.8897 57.0879 14.1693 54.8648 14.1693C52.1078 14.1693 50.0488 12.1655 50.0488 9.60616C50.0488 6.89252 52.1253 5.04297 54.6263 5.04297C57.1448 5.04297 58.3767 6.9275 58.7793 7.94588L59.0003 8.46433L52.5126 10.9908C53.0093 11.9063 53.7817 12.3733 54.8648 12.3733C55.9501 12.3733 56.7028 11.8713 57.2542 11.1101ZM52.1625 9.46832L56.4993 7.77512C56.2608 7.20524 55.5431 6.80817 54.6985 6.80817C53.6154 6.80817 52.1078 7.70723 52.1625 9.46832Z" fill="#EA4335"/>
<path d="M7.64304 8.42277V6.48681H14.5815C14.6493 6.82421 14.6844 7.22334 14.6844 7.65538C14.6844 9.10786 14.2621 10.9039 12.9011 12.1836C11.5772 13.4797 9.88585 14.171 7.64523 14.171C3.49221 14.171 0 10.9903 0 7.08549C0 3.18065 3.49221 0 7.64523 0C9.94274 0 11.5794 0.847626 12.8092 1.95242L11.3563 3.3185C10.4744 2.54082 9.27974 1.93596 7.64304 1.93596C4.61033 1.93596 2.23843 4.23401 2.23843 7.08549C2.23843 9.93697 4.61033 12.235 7.64304 12.235C9.61015 12.235 10.7305 11.4923 11.4482 10.8175C12.0302 10.2703 12.4131 9.48847 12.5641 8.42071L7.64304 8.42277Z" fill="#4285F4"/>
</g>
<defs>
<clipPath id="clip0">
<rect width="59" height="18" fill="white"/>
</clipPath>
</defs>
</svg>

<svg width="59" height="18" fill="none" xmlns="http://www.w3.org/2000/svg"><g clip-path="url(#clip0)"><path d="M25.249 9.61c0 2.627-2.186 4.563-4.869 4.563-2.682 0-4.868-1.936-4.868-4.563 0-2.646 2.186-4.563 4.868-4.563 2.683 0 4.869 1.917 4.869 4.563zm-2.131 0c0-1.642-1.267-2.765-2.738-2.765-1.47 0-2.737 1.123-2.737 2.765a2.715 2.715 0 002.737 2.765 2.717 2.717 0 002.738-2.765z" fill="#EA4335"/><path d="M35.75 9.61c0 2.627-2.185 4.563-4.868 4.563-2.682 0-4.868-1.936-4.868-4.563 0-2.644 2.186-4.563 4.868-4.563 2.683 0 4.869 1.917 4.869 4.563zm-2.13 0c0-1.642-1.267-2.765-2.738-2.765-1.47 0-2.737 1.123-2.737 2.765a2.715 2.715 0 002.737 2.765A2.717 2.717 0 0033.62 9.61z" fill="#FBBC05"/><path d="M45.816 5.323v8.192c0 3.37-2.113 4.746-4.612 4.746-2.352 0-3.768-1.479-4.302-2.689l1.856-.726c.33.743 1.14 1.62 2.444 1.62 1.6 0 2.59-.929 2.59-2.675v-.657h-.074c-.477.554-1.396 1.037-2.556 1.037-2.426 0-4.65-1.987-4.65-4.544 0-2.576 2.224-4.58 4.65-4.58 1.158 0 2.077.483 2.556 1.02h.074v-.742h2.024v-.002zm-1.873 4.304c0-1.607-1.14-2.782-2.59-2.782-1.47 0-2.703 1.175-2.703 2.782 0 1.59 1.232 2.748 2.703 2.748 1.45 0 2.59-1.158 2.59-2.748z" fill="#4285F4"/><path d="M49.153.52v13.372h-2.079V.52h2.079z" fill="#34A853"/><path d="M57.254 11.11l1.654 1.037a4.902 4.902 0 01-4.043 2.022c-2.757 0-4.816-2.004-4.816-4.563 0-2.713 2.076-4.563 4.577-4.563 2.519 0 3.75 1.885 4.153 2.903l.221.518-6.487 2.527c.496.915 1.269 1.382 2.352 1.382 1.085 0 1.838-.502 2.39-1.263zm-5.091-1.642l4.336-1.693c-.238-.57-.956-.967-1.8-.967-1.084 0-2.591.9-2.536 2.66z" fill="#EA4335"/><path d="M7.643 8.423V6.487h6.939c.067.337.102.736.102 1.168 0 1.453-.422 3.249-1.783 4.529-1.324 1.296-3.015 1.987-5.256 1.987C3.492 14.171 0 10.991 0 7.085 0 3.181 3.492 0 7.645 0c2.298 0 3.934.848 5.164 1.952l-1.453 1.366c-.882-.777-2.076-1.382-3.713-1.382-3.033 0-5.405 2.298-5.405 5.15 0 2.851 2.372 5.149 5.405 5.149 1.967 0 3.087-.743 3.805-1.417.582-.548.965-1.33 1.116-2.397l-4.921.002z" fill="#4285F4"/></g><defs><clipPath id="clip0"><path fill="#fff" d="M0 0h59v18H0z"/></clipPath></defs></svg>
